X:024
T:Allegretto TS.024
M:6/8
L:1/8
Q:3/8=100
S:Thomas Sands’ MS,1810,Lincolnshire
R:jig
C:Prefixed as ‘No.12′ in MS
O:England;Lincolnshire
Z:vmp.Ruairidh Greig, 2011
K:D
B|AFG AFG|A3Adc|B2Ag2f|efd cBA|
“_f”AFG AFG|A3 AdA|Bge {d}cBc|d3-d2:|
|:”_p”(f/g/)|a3 afd|ged cBA|Bcd efg|fed cBA|
a3afd|ged cBA|Bge {d}cBc|d3-d2:|
|:”_p”(A//G//F//E//)|DFA DFA|dfaa2 (G//F//E//D//)|
CEA CEA|cegg3|”_f”f/d/d/d/d/d/ g/e/e/e/e/e/|a/f/f/f/f/f/ b2a|
acd g2f|efd cBA|Gbb bge|Faa afd|Bba gfe|
dcB ABG|[F3A,3]EDE|DDD DEF|[G3A,3] FEF|[EA,][EA,][EA,] EFG|
“_p”A3AFd|A3AFd|ABA AGF|[F3A,3]H[E2A,2]B|
AFG AFG|A3Adc|B2Ag2f|efd cBA|
AFG AFG|A3 AdA|Bge {d}cBc|d3-d2:|]

